assets/icons/informations/view_agenda_fill.svg

<svg viewBox="0 0 24 24"  xmlns="http://www.w3.org/2000/svg">
<path d="M4.8502 11.2001C4.11686 11.2001 3.49186 10.9418 2.9752 10.4251C2.45853 9.90843 2.2002 9.28343 2.2002 8.5501V4.5001C2.2002 3.76676 2.45853 3.14176 2.9752 2.6251C3.49186 2.10843 4.11686 1.8501 4.8502 1.8501H19.1502C19.8835 1.8501 20.5085 2.10843 21.0252 2.6251C21.5419 3.14176 21.8002 3.76676 21.8002 4.5001V8.5501C21.8002 9.28343 21.5419 9.90843 21.0252 10.4251C20.5085 10.9418 19.8835 11.2001 19.1502 11.2001H4.8502ZM4.8502 22.1501C4.11686 22.1501 3.49186 21.8918 2.9752 21.3751C2.45853 20.8584 2.2002 20.2334 2.2002 19.5001V15.4501C2.2002 14.7168 2.45853 14.0918 2.9752 13.5751C3.49186 13.0584 4.11686 12.8001 4.8502 12.8001H19.1502C19.8835 12.8001 20.5085 13.0584 21.0252 13.5751C21.5419 14.0918 21.8002 14.7168 21.8002 15.4501V19.5001C21.8002 20.2334 21.5419 20.8584 21.0252 21.3751C20.5085 21.8918 19.8835 22.1501 19.1502 22.1501H4.8502Z" fill="inherit"/>
</svg>

<svg viewBox="0 0 24 24" xmlns="http://www.w3.org/2000/svg"><path d="M4.9 11.2c-.8 0-1.4-.3-2-.8-.4-.5-.7-1.1-.7-1.8V4.5c0-.7.3-1.4.8-1.9S4 2 4.9 2h14.3c.7 0 1.3.2 1.8.7.5.5.8 1.2.8 1.9v4c0 .8-.3 1.4-.8 2-.5.4-1.1.7-1.8.7H4.9Zm0 11c-.8 0-1.4-.3-2-.8-.4-.5-.7-1.2-.7-1.9v-4c0-.8.3-1.4.8-2 .5-.4 1.1-.7 1.9-.7h14.3c.7 0 1.3.3 1.8.8s.8 1.1.8 1.9v4c0 .7-.3 1.4-.8 1.9s-1.1.8-1.8.8H4.9Z" fill="inherit"/></svg>
